!!!!SEGMENT: pl-gd--ee-1638--005-011_marenzio-luca--il-primo-libro-de-madrigali-spirituali-a-cinque-voci-e-quiesto-il-legno.krn
!!!cenid: 15xx:964
!!!COM: Marenzio, Luca
!!!COM-rismID: pe30003955
!!!CDT: ~1553-1599/08/22
!!!CNT: Italian
!!!GTL: Il Primo libro de madrigali spirituali a cinque voci
!!!OTL: E quiesto il legno
!!!OMV: 011
!!!PDT: 1588
!!!AGN:
!!!SMS-siglum: PL-GD
!!!SMS-shelfmark: Ee 1638
!!!SMS-shelfwork: 005-011 G
!!!SMS-variant:
!!!SMS-altvar:
!!!NIFC-rismSourceID: 1001202747
!!!NIFC-rismChildID: 990039269
!!!NIFC-islandoraID: pl-gd:57883
!!!URL-pdf-islandora: https://repozytorium.nifc.pl/islandora/object/pl-gd%3A57883/datastream/PDF/view
!!!URL-scan: https://polish.musicsources.pl/pl/lokalizacje/galeria/klocki-introligatorskie/655 @EN{Scan on Polish Music Sources Website} @PL{Skany w portalu Dziedzictwo Muzyki Polskiej w otwartym dostępie}
!!!IIIF: https://repozytorium.nifc.pl/islandora/object/pl-gd%3A57883/datastream/IIIF/view
!!!ONB-nifc: UWAGA: zbiór na stronach: Canto: s. 666-677, Alto: s. 514-525, Tenore: s. 362-373, Bassus: s. 210-221, Quinto: s. 58-69. Uwaga: utwory podzielone wg tytułów w spisach treści dostępnych na końcu każdej księgi głosowej.
!!!AIN: 1 alto 1 bass 1 soprn 1 tenor 1 vox
!!!key: a
!!!OMD:
!!!OMD-mod: Prima parte
**kern	**text	**kern	**text	**kern	**text	**kern	**text	**kern	**text
*part5	*	*part4	*	*part3	*	*part2	*	*part1	*
*staff5	*	*staff4	*	*staff3	*	*staff2	*	*staff1	*
*I"BASSO	*	*I"TENORE	*	*I"QVINTO	*	*I"ALTO	*	*I"CANTO	*
*mI"Basso	*	*mI"Tenore	*	*mI"Quinto	*	*mI"Alto	*	*mI"Soprano	*
*I'B	*	*I'T	*	*I'V 5	*	*I'A	*	*I'S	*
*ICvox	*	*ICvox	*	*ICvox	*	*ICvox	*	*ICvox	*
*Ibass	*	*Itenor	*	*Ivox	*	*Ialto	*	*Isoprn	*
*clefF3	*	*clefC3	*	*clefC3	*	*clefC2	*	*clefG2	*
*mclefF4	*	*mclefGv2	*	*mclefGv2	*	*mclefG2	*	*	*
*k[]	*	*k[]	*	*k[]	*	*k[]	*	*k[]	*
*a:	*	*a:	*	*a:	*	*a:	*	*a:	*
*M2/1	*	*M2/1	*	*M2/1	*	*M2/1	*	*M2/1	*
*met(C)	*	*met(C)	*	*met(C)	*	*met(C)	*	*met(C)	*
=1-	=1-	=1-	=1-	=1-	=1-	=1-	=1-	=1-	=1-
*xywh-#215:4691,590,3386,800	*	*xywh-#367:4722,583,3360,703	*	*xywh-#63:4534,575,3331,760	*	*xywh-#519:4605,543,3438,746	*	*xywh-#671:4660,492,3384,759	*
!	!	!	!	!	!	!LO:TX:t=P:problem:w źródle błędnie zapisany klucz sopranowy, chociaż dźwięki jak w mezzosopranowym	!	!	!
!LO:TX:b:t=E Queſt`il:mod=	!	!	!	!	!	!	!	!	!
!LO:TX:a:t=Prima Parte:mod=	!	!LO:TX:a:t=Prima Parte:mod=	!	!LO:TX:a:t=Prima Parte:mod=	!	!LO:TX:a:t=Prima Parte:mod=	!	!LO:TX:a:t=Prima Parte:mod=	!
0r	.	1c	E	1e	E	1g	E	1cc	E
!	!	!	!LO:MO:mod=que-	!	!LO:MO:mod=que-	!	!LO:MO:mod=que-	!	!LO:MO:mod=que-
.	.	2A/	Queſ-	2e\	Queſ-	2a\	Queſ-	2cc\	Queſ-
!	!	!	!LO:MO:mod=-st`il	!	!LO:MO:mod=-st`il	!	!LO:MO:mod=-st`il	!	!LO:MO:mod=-st`il
.	.	2A/	-t`il	2e\	-t`il	2a\	-t`il	2cc\	-to il
=2-	=2-	=2-	=2-	=2-	=2-	=2-	=2-	=2-	=2-
!	!	!	!	!	!LO:MO:mod=le-	!	!	!	!
0r	.	1G	le-	1g	leg-	1b	le-	1dd	le-
!	!	!	!	!	!LO:MO:mod=-gno	!	!	!	!
.	.	1c	-gno	1g	-no	0cc	-gno	1ee	-gno
=3-	=3-	=3-	=3-	=3-	=3-	=3-	=3-	=3-	=3-
!	!LO:MO:mod=che	!	!	!	!	!	!	!	!
1.c	Che	2r	.	2r	.	.	.	2r	.
!	!	!	!LO:MO:mod=che	!	!	!	!	!	!LO:MO:mod=che
.	.	1e	Che	1g	che	.	.	1cc	Che
.	.	.	.	.	.	1r	.	.	.
!	!	!	!LO:MO:mod=del	!	!	!	!	!	!LO:MO:mod=del
2G\	del	2d\	dal	2g\	del	.	.	2b/	dal
=4-	=4-	=4-	=4-	=4-	=4-	=4-	=4-	=4-	=4-
!	!LO:MO:mod=sa-	!	!LO:MO:mod=sa-	!	!LO:MO:mod=sa-	!	!	!	!LO:MO:mod=sa-
2A\	ſac-	2c/	ſac-	2e\	ſac-	0r	.	2a/	ſac-
!	!LO:MO:mod=-cro	!	!LO:MO:mod=-cro	!	!LO:MO:mod=-cro	!	!	!	!LO:MO:mod=-cro
2E/	-ro	2B/	-ro	2e\	-ro	.	.	2g#X/	-ro
1F	ſan-	1A	ſan-	2c/	ſan-	.	.	1a	ſan-
.	.	.	.	2d\	.	.	.	.	.
=5-	=5-	=5-	=5-	=5-	=5-	=5-	=5-	=5-	=5-
2E/	-gue	2B/	-gue	0e	-gue	2r	.	2g#X/	-gue
!	!LO:MO:mod=Re-	!	!LO:MO:mod=Re-	!	!	!	!LO:MO:mod=Re-	!	!LO:MO:mod=Re-
2E/	Reſ-	2e\	Reſ-	.	.	2g#X\	Reſ-	2b/	Reſ-
!	!LO:MO:mod=-sper-	!	!LO:MO:mod=-sper-	!	!	!	!LO:MO:mod=-sper-	!	!LO:MO:mod=-sper-
1A	-per-	1c	-per-	.	.	4a\	-per-	4cc\	-per-
.	.	.	.	.	.	4b\	-ſo	4dd\	-ſo
!	!	!	!	!	!	!	!LO:MO:mod=fù	!	!LO:MO:mod=fù
.	.	.	.	.	.	4cc\	fu	4ee\	fu
!	!	!	!	!	!	!	!	!LO:SIC:v:t=custos dd	!
.	.	.	.	.	.	4a\	nel	4cc\	nel
!	!	!	!	!	!	!	!	!LO:LB:g=original	!
=6-	=6-	=6-	=6-	=6-	=6-	=6-	=6-	=6-	=6-
*	*	*	*	*	*	*	*	*xywh-#671:4667,1167,3391,619	*
!	!	!	!	!	!	!LO:SIC:s=4.b\:v	!	!	!
1G	-ſo	1.g	-ſo	2r	.	4.cc\	be-	4.dd\	be-
.	.	.	.	.	.	8a\	-ne-	8cc\	-ne-
!	!	!	!	!	!LO:MO:mod=Re-	!	!	!	!
.	.	.	.	2d\	Reſ-	4gny\	-det-	4b/	-det-
.	.	.	.	.	.	4f\	-to	4a/	-to
!	!	!	!	!	!	!LO:SIC:v:t=custos c	!	!	!
!	!LO:MO:mod=fù	!	!	!	!LO:MO:mod=-sper-	!	!	!	!
1c	fu	.	.	4e\	-per-	2e/	gior-	2gny/	gior-
!	!	!	!	!LO:SIC:v:t=custos g	!	!	!	!	!
.	.	.	.	4f\	-ſo	.	.	.	.
*	*	*	*	*xywh-#63:4541,1257,3339,632	*	*xywh-#519:4605,1121,3459,697	*	*	*
!	!	!	!	!LO:LB:g=original	!	!LO:LB:g=original	!	!	!
!	!	!	!LO:MO:mod=fù	!	!LO:MO:mod=fù	!	!LO:MO:mod=-no,	!	!LO:MO:mod=-no,
.	.	4e\	fu	4g\	fu	2c/	-no	2g/	-no
!	!	!LO:SIC:v:t=custos a	!	!	!	!	!	!	!
.	.	4g\	nel	4e\	nel	.	.	.	.
!	!	!LO:LB:g=original	!	!	!	!	!	!	!
=7-	=7-	=7-	=7-	=7-	=7-	=7-	=7-	=7-	=7-
*	*	*xywh-#367:4715,1243,3360,632	*	*	*	*	*	*	*
1F	nel	4.a\	be-	4.f\	be-	2r	.	1r	.
.	.	8g\	-ne-	8e\	-ne-	.	.	.	.
.	.	4f\	-det-	4d\	-det-	2a\	nel	.	.
.	.	4e\	-to	4c/	-to	.	.	.	.
!	!	!	!	!	!	!LO:SIC:s=4.b\:v	!	!	!
2G\	be-	1d	gior-	2B/	gior-	4.b#X\	be-	2r	.
.	.	.	.	.	.	8a\	-ne-	.	.
!LO:SIC:v:t=custos C	!	!	!	!	!	!	!	!	!
!	!	!	!	!	!LO:MO:mod=-no,	!	!	!	!LO:MO:mod=re-
2G\	-ne-	.	.	4B/	-no	4g\	-det-	2dd\	Reſ-
*	*	*	*	*	*ij	*	*	*	*
!	!	!	!	!	!LO:MO:mod=re-	!	!	!	!
.	.	.	.	4B/	Reſ-	4f\	-to	.	.
!LO:LB:g=original	!	!	!	!	!	!	!	!	!
=8-	=8-	=8-	=8-	=8-	=8-	=8-	=8-	=8-	=8-
*xywh-#215:4706,1287,3366,622	*	*	*	*	*	*	*	*	*
!	!	!	!LO:MO:mod=-no,	!	!LO:MO:mod=-sper-	!	!	!	!LO:MO:mod=-sper-
1C	-det-	2g\	-no	4c/	-per-	2e/	gior-	4ee\	-per-
.	.	.	.	4d\	-ſo	.	.	4ff\	-ſo
!	!	!	!	!	!LO:MO:mod=fù	!	!LO:MO:mod=-no,	!	!LO:MO:mod=fù
.	.	4r	.	4e\	fu	4c/	-no	4gg\	fu
*	*	*	*ij	*	*	*	*ij	*	*
.	.	4c/	be-	4e\	nel	4cc\	nel	4ee\	nel
1D	-to	2f\	-ne-	4.d\	be-	4a\	be-	4.ff\	be-
.	.	.	.	.	.	4a\	-ne-	.	.
.	.	.	.	8c/	-ne-	.	.	8ee\	-ne-
.	.	2f\	-det-	4B/	-det-	2.bny\	-det-	4dd\	-det-
.	.	.	.	4A/	-to	.	.	4cc\	-to
*	*	*	*	*	*Xij	*	*	*	*
=9-	=9-	=9-	=9-	=9-	=9-	=9-	=9-	=9-	=9-
2.E/	gior-	2g\	-to	0G	gior-	.	.	2b/	gior-
.	.	.	.	.	.	4a\	-to	.	.
.	.	2e\	gior-	.	.	2.g\	gior-	2.cc\	.
4F/	.	.	.	.	.	.	.	.	.
1G	.	1d	.	.	.	.	.	.	.
!	!	!	!	!	!	!LO:SIC:s=8f\L:v	!	!LO:SIC:s=8b\L:v	!
.	.	.	.	.	.	8f\	.	8b\	.
!	!	!	!	!	!	!LO:SIC:s=8e\J:v	!	!LO:SIC:s=8a/J:v	!
.	.	.	.	.	.	8e\	.	8a/	.
.	.	.	.	.	.	2d/	.	2b/	.
=10-	=10-	=10-	=10-	=10-	=10-	=10-	=10-	=10-	=10-
1C	-no	1g	-no	2G/	-no	2e/	-no	2cc\	-no
!	!	!	!	!	!	!	!	!LO:SIC:v:t=custos ee	!
*	*	*	*	*	*	*	*Xij	*	*
.	.	.	.	4c/	Che	4e/	Che	2r	.
.	.	.	.	4d\	fug-	4f\	fug-	.	.
*	*	*	*	*	*	*	*	*xywh-#671:4667,1702,3412,661	*
!	!	!	!	!LO:SIC:v:t=custos a	!	!LO:SIC:v:t=custos e	!	!LO:LB:g=original	!
!	!	!	!	!	!LO:MO:mod=-gì	!	!LO:MO:mod=-gì	!	!
4c\	Che	2r	.	1e	-gi	1g	-gi	4ee\	Che
4d\	fug-	.	.	.	.	.	.	4ff\	fug-
*	*	*	*Xij	*	*	*	*	*	*
!	!	!	!	!	!	!	!	!	!LO:MO:mod=-gì,
!	!LO:MO:mod=-gì,	!	!	!	!	!	!	!	!
2e\	-gi	4c/	Che	.	.	.	.	2gg\	-gi
.	.	4d\	fug-	.	.	.	.	.	.
!	!	!	!	!LO:LB:g=original	!	!LO:LB:g=original	!	!	!
=11-	=11-	=11-	=11-	=11-	=11-	=11-	=11-	=11-	=11-
*	*	*	*	*xywh-#63:4548,1797,3346,625	*	*xywh-#519:4612,1713,3431,690	*	*	*
*	*	*	*	*	*	*	*	*	*ij
!	!LO:MO:mod=che	!	!LO:MO:mod=-gì	!	!	!	!	!	!
4A\	Che	1e	-gi	2a\	vin-	2r	.	4cc\	che
4B\	fug-	.	.	.	.	.	.	4dd\	fug-
!	!	!	!	!	!	!	!	!	!LO:MO:mod=-gì
!	!LO:MO:mod=-gì	!	!	!	!	!	!	!	!
2c\	-gi	.	.	2g\	-to	2e/	vin-	2ee\	-gi
*	*	*	*	*	*	*	*	*	*Xij
2F/	vin-	2a\	vin-	4f\	con	2c/	-to	2ff\	vin-
.	.	.	.	4f\	pau-	.	.	.	.
2C/	-to	2g\	-to	4e\	-ra	4cc\	con	2gg\	-to
.	.	.	.	4e\	e	4cc\	pau-	.	.
=12-	=12-	=12-	=12-	=12-	=12-	=12-	=12-	=12-	=12-
4D/	con	4f\	con	2d\	ſcor-	4a\	-ra	1r	.
4D/	pau-	4f\	pau-	.	.	4a\	e	.	.
!	!	!	!	!	!LO:MO:mod=-no,	!	!	!	!
4A\	-ra	4e\	-ra	2c/	-no	1a	ſcor-	.	.
4A\	e	4e\	e	.	.	.	.	.	.
!	!	!	!	!	!LO:MO:mod=che	!	!	!	!
2D/	ſcor-	2d\	ſcor-	4A/	Che	.	.	4ff\	con
.	.	.	.	4B/	fug-	.	.	4ff\	pau-
!LO:SIC:v:t=custos D	!	!LO:SIC:v:t=custos f	!	!	!	!	!	!	!
!	!LO:MO:mod=-no,	!	!LO:MO:mod=-no,	!	!LO:MO:mod=-gì,	!	!LO:MO:mod=-no,	!	!
2A\	-no	2e\	-no	2c/	-gi	1a\	-no	4ee\	-ra
.	.	.	.	.	.	.	.	4ee\	e
!LO:LB:g=original	!	!LO:LB:g=original	!	!	!	!	!	!	!
=13-	=13-	=13-	=13-	=13-	=13-	=13-	=13-	=13-	=13-
*xywh-#215:4686,1825,3331,662	*	*xywh-#367:4722,1797,3360,596	*	*	*	*	*	*	*
!	!LO:MO:mod=che	!	!	!	!LO:MO:mod=che	!	!	!	!
4D/	Che	2r	.	4f\	Che	.	.	2dd\	ſcor-
4E/	fug-	.	.	4g\	fug-	.	.	.	.
!	!LO:MO:mod=-gì	!	!	!	!LO:MO:mod=-gì	!	!LO:MO:mod=che	!	!LO:MO:mod=-no,
2F/	-gi	4f\	con	2a\	-gi	4a\	Che	2cc\	-no
.	.	4f\	pau-	.	.	4b\	fug-	.	.
!	!	!	!	!	!	!	!LO:MO:mod=-gì	!	!
2C/	vin-	4e\	-ra	2g\	vin-	2cc\	-gi	2r	.
.	.	4e\	e	.	.	.	.	.	.
*	*	*	*	*	*	*	*	*	*ij
2D/	-to	1d\	ſcor-	2f\	-to	2a\	vin-	2.ff\	con
=14-	=14-	=14-	=14-	=14-	=14-	=14-	=14-	=14-	=14-
4d\	con	.	.	1r	.	2a\	-to	.	.
4d\	pau-	.	.	.	.	.	.	4ff\	-pau-
4c\	-ra	2g\	-no	.	.	4e/	con	4ee\	-ra
4c\	e	.	.	.	.	4e/	pau-	4ee\	e
1B-X	ſcor-	1r	.	1d	Quel	4f\	-ra	1.dd	ſcor-
.	.	.	.	.	.	4f\	e	.	.
.	.	.	.	.	.	2g\	ſcor-	.	.
=15-	=15-	=15-	=15-	=15-	=15-	=15-	=15-	=15-	=15-
!	!	!	!	!	!LO:MO:mod=fal-	!	!	!	!
0A	-no	1r	.	1f	fals`	1a	-no	.	.
.	.	.	.	.	.	.	.	4cc#X\	.
!	!	!	!	!	!	!	!	!LO:SIC:v:t=custos cc	!
.	.	.	.	.	.	.	.	4b/	.
*	*	*	*	*	*	*	*	*xywh-#671:4667,2237,3405,661	*
!	!	!	!	!	!	!	!	!LO:LB:g=original	!
!	!	!	!	!	!LO:MO:mod=-s`an-	!	!	!LO:SIC:s=1cc#:v	!
.	.	2r	.	2e\	an-	2r	.	1cc#X	.
!	!	!	!	!LO:SIC:v:t=custos g	!	!	!	!	!
.	.	1A/	Quel	1a\	-ti-	2e/	Quel	.	.
!	!	!	!	!LO:LB:g=original	!	!	!	!	!
=16-	=16-	=16-	=16-	=16-	=16-	=16-	=16-	=16-	=16-
1D	Quel	.	.	.	.	2f#X\	fal-	1dd	-no
*	*	*	*	*xywh-#63:4555,2337,3346,674	*	*	*	*	*
!	!	!	!	!	!	!LO:SIC:v:t=custos a	!	!	!
.	.	1B-X	fal-	1g	-co	2g\	-ſ`an-	.	.
*	*	*	*	*	*	*xywh-#519:4605,2319,3466,613	*	*	*
!	!	!	!	!	!	!LO:LB:g=original	!	!	!
2C#X/	fals`an-	.	.	.	.	2.a\	-ti-	2r	.
*	*	*	*	*	*	*	*	*	*Xij
!	!	!	!LO:MO:mod=-s`an-	!	!LO:MO:mod=alpe-	!	!	!	!
2D/	-ti-	1A/	-ſo an-	2f\	alpeſ-	.	.	2a/	Quel
.	.	.	.	.	.	4b\	.	.	.
=17-	=17-	=17-	=17-	=17-	=17-	=17-	=17-	=17-	=17-
!	!	!	!	!	!LO:MO:mod=-str`e	!	!	!	!
0E	-co	.	.	1e	-tr`e	2cc\	.	2.ee\	fal-
.	.	1G#X	-tic`	.	.	1b	-co	.	.
!	!	!	!	!	!	!	!	!	!LO:MO:mod=-s`an-
.	.	.	.	.	.	.	.	4dd\	-ſo an-
.	.	.	.	2.e\	ri-	.	.	1ccny	-ti-
.	.	2A/	al-	.	.	1a\	al-	.	.
.	.	.	.	4e\	-gi-	.	.	.	.
=18-	=18-	=18-	=18-	=18-	=18-	=18-	=18-	=18-	=18-
!	!	!	!LO:MO:mod=-pe-	!	!	!	!	!	!
1E	al-	1Bny	-peſ-	1e	-do an-	.	.	2b/	-co al-
!	!	!	!	!	!	!	!LO:MO:mod=-pe-	!	!LO:MO:mod=-pe-
.	.	.	.	.	.	1g	-peſ-	1ee	-peſ-
!	!LO:MO:mod=-pe-	!	!LO:MO:mod=-str`e	!	!	!	!	!	!
!	!	!	!	!	!LO:MO:mod=-gue,	!	!	!	!
1A	-peſ-	2c#X/	-tro e	2e\	-gue	.	.	.	.
!	!	!	!	!	!	!	!LO:MO:mod=-str`e ri-	!	!LO:MO:mod=-str`e ri-
.	.	2.d\	ri-	2a\	e	2.fny\	-tr`e ri-	1dd\	-tro e ri-
=19-	=19-	=19-	=19-	=19-	=19-	=19-	=19-	=19-	=19-
!	!LO:MO:mod=-str`e	!	!	!	!	!	!	!	!
1A	-tr`e	.	.	2.a\	ri-	.	.	.	.
.	.	4d\	-gi-	.	.	4f\	-gi-	.	.
!	!	!	!LO:MO:mod=-do,	!	!	!	!	!	!
.	.	2e\	-do	.	.	2a\	-do an-	2.cc\	-gi-
.	.	.	.	4e\	-gi-	.	.	.	.
!	!	!	!	!	!	!	!LO:MO:mod=-gue, e	!	!
2.G\	ri-	2r	.	4g\	-do	2d/	-gue e	.	.
!	!	!	!	!LO:SIC:s=8f\L:v	!	!	!	!	!
.	.	.	.	8f\	an-	.	.	4b/	-do
!	!	!	!	!LO:SIC:s=8e\J:v	!	!	!	!	!
.	.	.	.	8e\	.	.	.	.	.
.	.	2B/	e	4d\	.	2g\	ri-	2b/	an-
!LO:SIC:v:t=custos F	!	!	!	!	!	!	!	!	!
4G\	-gi-	.	.	4e\	.	.	.	.	.
!LO:LB:g=original	!	!	!	!	!	!	!	!	!
=20-	=20-	=20-	=20-	=20-	=20-	=20-	=20-	=20-	=20-
*xywh-#215:4696,2384,3376,637	*	*	*	*	*	*	*	*	*
!	!	!	!	!	!	!	!	!	!LO:MO:mod=-gue?
2.F/	-do	2.cny/	ri-	4A/	.	2.cc\	-gi-	1a	-gue
.	.	.	.	4B/	.	.	.	.	.
.	.	.	.	2.c/	.	.	.	.	.
4E/	an-	4c/	-gi-	.	.	4cc\	-do	.	.
!	!	!LO:SIC:v:t=custos G	!	!	!	!	!	!	!
1D	.	1d	-do an-	.	.	1.f	an-	1r	.
!	!	!	!	!LO:SIC:s=8B/L:v	!	!	!	!	!
.	.	.	.	8B/	.	.	.	.	.
!	!	!	!	!LO:SIC:s=8A/J:v	!	!	!	!	!
.	.	.	.	8A/	.	.	.	.	.
.	.	.	.	2B/	.	.	.	.	.
!	!	!LO:LB:g=original	!	!	!	!	!	!	!
=21-	=21-	=21-	=21-	=21-	=21-	=21-	=21-	=21-	=21-
*	*	*xywh-#367:4729,2302,3367,667	*	*	*	*	*	*	*
!	!LO:MO:mod=-gue?	!	!LO:MO:mod=-gue?	!	!LO:MO:mod=-gue?	!	!	!	!
0Cny	-gue	0Gny	-gue	0c	-gue	.	.	0r	.
.	.	.	.	.	.	4e/	.	.	.
.	.	.	.	.	.	4d/	.	.	.
!	!	!	!	!	!	!	!LO:MO:mod=-gue?	!	!
.	.	.	.	.	.	1e	-gue	.	.
=22-	=22-	=22-	=22-	=22-	=22-	=22-	=22-	=22-	=22-
!	!	!	!	!	!	!	!	!	!LO:MO:mod=Qui,
1r	.	1r	.	1r	.	1r	.	0ee	Qui
!	!	!	!	!LO:SIC:v:t=custos a	!	!	!	!	!
0A	Qui`l	0c#X	Qui`l	0e	Qui`l	0a	Qui`l	.	.
!	!	!	!	!LO:LB:g=original	!	!	!	!	!
=23-	=23-	=23-	=23-	=23-	=23-	=23-	=23-	=23-	=23-
.	.	.	.	.	.	.	.	2r	.
!	!	!	!	!	!	!	!	!	!LO:MO:mod=qui`l
.	.	.	.	.	.	.	.	1a	Qui`l
*	*	*	*	*xywh-#63:4569,2920,3353,618	*	*	*	*	*
1D	mio	1d	mio	1a	mio	1f#X	mio	.	.
.	.	.	.	.	.	.	.	2dd\	mio
=24-	=24-	=24-	=24-	=24-	=24-	=24-	=24-	=24-	=24-
2D/	ſi-	2A/	ſi-	2d\	ſi-	2f#yX\	ſi-	2dd\	ſi-
1G	-gnor	1B	-gnor	1d	-gnor	1g	-gnor	1dd	-gnor
!	!	!	!	!	!	!LO:SIC:v:t=custos a	!	!	!
!	!LO:MO:mod=la-	!	!LO:MO:mod=la-	!	!LO:MO:mod=la-	!	!	!	!
2C/	laſ-	2cny/	laſ-	2e\	laſ-	2g\	la-	2cc\	la-
!	!	!	!	!	!	!LO:LB:g=original	!	!	!
=25-	=25-	=25-	=25-	=25-	=25-	=25-	=25-	=25-	=25-
*	*	*	*	*	*	*xywh-#519:4591,2819,3480,662	*	*	*
!	!LO:MO:mod=-sciò	!	!LO:MO:mod=-sciò	!	!LO:MO:mod=-sciò	!	!LO:MO:mod=-sciò	!	!LO:MO:mod=-sciò
2.F/	-ciò	2c/	-ciò	2.f\	-ciò	2.a\	-ſcio	1cc	-ſcio
.	.	2A/	la	.	.	.	.	.	.
4A\	la	.	.	4c/	la	4e/	la	.	.
!	!	!	!	!	!	!	!	!LO:SIC:v:t=custos ee	!
2E/	ſpo-	2G#X/	ſpo-	2B/	ſpo-	2e/	ſpo-	1r	.
2F/	-glia e	2A/	-glia e	2A/	-glia e	2d/	-glia e	.	.
!	!	!	!	!	!	!	!	!LO:LB:g=original	!
=26-	=26-	=26-	=26-	=26-	=26-	=26-	=26-	=26-	=26-
*	*	*	*	*	*	*	*	*xywh-#671:4681,2772,3398,675	*
1E	ſan-	1B	ſan-	1G#X	ſan-	1e	ſan-	1r	.
!	!LO:MO:mod=-gue,	!	!LO:MO:mod=-gue,	!	!LO:MO:mod=-gue,	!	!LO:MO:mod=-gue,	!	!
1E	-gue	1B	-gue	1G#	-gue	2e/	-gue	2r	.
.	.	.	.	.	.	2e/	Tor-	2ee\	Tor-
=27-	=27-	=27-	=27-	=27-	=27-	=27-	=27-	=27-	=27-
0r	.	1r	.	0r	.	4fny\	-nan-	4a/	-nan-
.	.	.	.	.	.	4g\	-d`al	4b/	-d`al
.	.	.	.	.	.	4a\	ſuo	4cc\	ſuo
.	.	.	.	.	.	4b\	ce-	4dd\	ce-
!	!	!	!	!	!	!	!LO:MO:mod=-le-	!	!LO:MO:mod=-le-
.	.	2r	.	.	.	4cc\	-leſ-	4ee\	-leſ-
!	!	!	!	!	!	!	!LO:MO:mod=-ste al-	!	!LO:MO:mod=-ste al-
.	.	.	.	.	.	4.a\	-te al-	4.cc\	-te al-
.	.	2e\	Tor-	.	.	.	.	.	.
.	.	.	.	.	.	8a\	-to	8cc\	-to
.	.	.	.	.	.	4g\	ſog-	4b/	ſog-
=28-	=28-	=28-	=28-	=28-	=28-	=28-	=28-	=28-	=28-
0r	.	4A/	-nan-	1r	.	1cc	-gior-	1a	-gior-
.	.	4B/	-d`al	.	.	.	.	.	.
.	.	4c/	ſuo	.	.	.	.	.	.
.	.	4d\	ce-	.	.	.	.	.	.
!	!	!LO:SIC:v:t=custos c	!	!	!	!	!	!	!
!	!	!	!	!	!	!	!LO:MO:mod=-no,	!	!LO:MO:mod=-no,
.	.	4e\	-le-	2r	.	4b\	-no	4g/	-no
*	*	*xywh-#367:4736,2849,3353,667	*	*	*	*	*	*	*
!	!	!LO:LB:g=original	!	!	!	!	!	!	!
!	!	!	!	!	!	!	!LO:MO:mod=tor-	!	!
.	.	4.c/	-ſte al-	.	.	4e/	Tor-	4.ee\	al-
!	!	!	!	!	!	!	!LO:MO:mod=-nan-	!	!
.	.	.	.	2g\	Tor-	4c/	-nã(n)-	.	.
.	.	8c/	-to	.	.	.	.	8ee\	-to
.	.	4B/	ſog-	.	.	4d/	-d`al	4dd\	ſog-
=29-	=29-	=29-	=29-	=29-	=29-	=29-	=29-	=29-	=29-
!	!	!	!	!	!LO:MO:mod=-nan-	!	!	!	!
1r	.	1A	-gior-	4c/	-nã(n)-	4e/	ſuo	2cc\	-gior-
.	.	.	.	4d\	-d`al	4f\	ce-	.	.
!	!	!	!	!	!	!LO:SIC:v:t=custos cc	!	!	!
!	!	!	!	!	!	!	!	!	!LO:MO:mod=-no,
.	.	.	.	4e\	ſuo	4c/	-le-	2a/	-no
*	*	*	*	*	*	*xywh-#519:4605,3404,3466,634	*	*	*
!	!	!	!	!	!	!LO:LB:g=original	!	!	!
.	.	.	.	4f\	ce-	4.cc\	-ſte al-	.	.
!	!	!	!LO:MO:mod=-no,	!	!	!	!	!	!
!	!	!	!	!	!LO:MO:mod=-le-	!	!	!	!
2r	.	4Gny/	-no	4g\	-leſ-	.	.	2r	.
.	.	.	.	.	.	8b\	-to	.	.
!	!	!	!	!	!LO:MO:mod=-ste al-	!	!	!	!
.	.	4.g\	al-	4.e\	-te al-	4b\	ſog-	.	.
!	!	!	!	!	!	!	!	!	!LO:MO:mod=tor-
2G\	Tor-	.	.	.	.	2g\	-gior-	2b/	Tor-
.	.	8g\	-to	8e\	-to	.	.	.	.
.	.	4f\	ſog-	4d\	ſog-	.	.	.	.
=30-	=30-	=30-	=30-	=30-	=30-	=30-	=30-	=30-	=30-
!	!LO:MO:mod=-nan-	!	!	!	!	!	!LO:MO:mod=-no,	!	!LO:MO:mod=-nan-
4C/	-nã(n)-	1e	-gior-	1c	-gior-	1g	-no	4ee\	-nã(n)-
!	!	!	!	!	!	!	!	!	!LO:MO:mod=d`al
4D/	-d`al	.	.	.	.	.	.	4ff\	-d`al
4E/	ſuo	.	.	.	.	.	.	2gg\	ſuo
!LO:SIC:v:t=custos G	!	!	!	!	!	!	!	!	!
4F/	ce-	.	.	.	.	.	.	.	.
*xywh-#215:4691,2913,3297,677	*	*	*	*	*	*	*	*	*
!LO:LB:g=original	!	!	!	!LO:SIC:v:t=custos e	!	!	!	!	!
!	!LO:MO:mod=-le-	!	!LO:MO:mod=-no,	!	!LO:MO:mod=-no,	!	!	!	!
4G\	-leſ-	2d\	-no	2B/	-no	2r	.	2dd\	ce-
!	!LO:MO:mod=-ste al-	!	!	!	!	!	!	!	!
4.d\	-te al-	.	.	.	.	.	.	.	.
*	*	*	*	*xywh-#63:4584,3446,3317,632	*	*	*	*	*
!	!	!	!	!LO:LB:g=original	!	!	!	!LO:SIC:v:t=custos dd	!
!	!	!	!	!	!	!	!LO:MO:mod=tor-	!	!
.	.	2r	.	4r	.	2a\	Tor-	2ee\	-le-
8d\	-to	.	.	.	.	.	.	.	.
!	!	!	!	!	!LO:MO:mod=tor-	!	!	!	!
4c\	ſog-	.	.	4e\	Tor-	.	.	.	.
!	!	!	!	!	!	!	!	!LO:LB:g=original	!
=31-	=31-	=31-	=31-	=31-	=31-	=31-	=31-	=31-	=31-
*	*	*	*	*	*	*	*	*xywh-#671:4696,3334,3405,668	*
!	!	!	!	!	!LO:MO:mod=-nan-	!	!	!	!
1B-X	-gior-	1r	.	4f\	-nã(n)-	4d/	-nan-	2dd\	-ſte
.	.	.	.	4e\	-d`al	4e/	-d`al	.	.
.	.	.	.	4d\	ſuo	4f\	ſuo	4r	.
.	.	.	.	4d\	ce-	4g\	ce-	4.gg\	al-
!	!	!	!	!	!	!	!LO:MO:mod=-le-	!	!
!	!LO:MO:mod=-no,	!	!	!	!LO:MO:mod=-le-	!	!	!	!
1A	-no	2r	.	4c/	-leſ-	2.a\	-leſ-	.	.
.	.	.	.	.	.	.	.	8gg\	-to
!	!	!	!	!	!LO:MO:mod=-ste al-	!	!	!	!
.	.	.	.	4.c/	-te al-	.	.	4ff\	ſog-
.	.	4.e\	al-	.	.	.	.	2ee\	-gior-
.	.	.	.	8B/	-to	.	.	.	.
!	!	!	!	!	!	!	!LO:MO:mod=-ste al-	!	!
.	.	.	.	4A/	ſog-	4.cc\	-te al-	.	.
.	.	8e\	-to	.	.	.	.	.	.
=32-	=32-	=32-	=32-	=32-	=32-	=32-	=32-	=32-	=32-
!	!	!	!	!	!	!	!	!	!LO:MO:mod=-no,
0r	.	4f#X\	ſog-	1d	-gior-	.	.	0dd	-no
.	.	.	.	.	.	8cc\	-to	.	.
.	.	2g\	-gior-	.	.	4b\	ſog-	.	.
.	.	.	.	.	.	2a\	-gior-	.	.
!	!	!LO:SIC:s=4f#\:v	!	!	!	!	!	!	!
.	.	4f#X\	.	.	.	.	.	.	.
!	!	!	!LO:MO:mod=-no,	!	!LO:MO:mod=-no,	!	!LO:MO:mod=-no,	!	!
.	.	0g	-no	1Gny	-no	0b	-no	.	.
=33-	=33-	=33-	=33-	=33-	=33-	=33-	=33-	=33-	=33-
0G	E	.	.	1r	.	.	.	1r	.
.	.	1d	E	1B	E	2r	.	1b	E
.	.	.	.	.	.	2g\	E	.	.
=34-	=34-	=34-	=34-	=34-	=34-	=34-	=34-	=34-	=34-
2.E/	ſco-	2.e\	ſco-	2.B/	ſco-	2.g#X\	ſco-	2.ee\	ſco-
4E/	-lo-	4e\	-lo-	4B/	-lo-	4g#\	-lo-	4ee\	-lo-
!	!	!LO:SIC:v:t=custos B	!	!	!	!	!	!	!
!	!	!	!	!	!	!	!	!	!LO:MO:mod=-ros-
2E/	-roſ-	2e\	-roſ-	2B/	-roſ-	2g#\	-roſ-	2ee\	-roſsi
*	*	*xywh-#367:4750,3424,3346,646	*	*	*	*	*	*	*
!	!	!LO:LB:g=original	!	!	!	!LO:SIC:v:t=custos a	!	!	!
!	!	!	!	!	!	!	!	!	!LO:MO:mod=-s`il
2E/	-s`il	2B/	-s`il	2e\	-s`il	2g#\	-s`il	2ee\	il
!	!	!	!	!	!	!LO:LB:g=original	!	!	!
=35-	=35-	=35-	=35-	=35-	=35-	=35-	=35-	=35-	=35-
*	*	*	*	*	*	*xywh-#519:4612,3932,3466,669	*	*	*
1A	ſan-	1c#X	ſan-	1e	ſan-	1a	ſan-	1ee	ſan-
2A\	-to	2c#/	-to	1A	-to	1a	-to	2ee\	-to
!	!	!	!LO:MO:mod=vi-	!	!	!	!	!	!
1D/	vi-	1d\	Vi-	.	.	.	.	1ff\	vi-
=36-	=36-	=36-	=36-	=36-	=36-	=36-	=36-	=36-	=36-
.	.	.	.	1.A	vi-	1a	vi-	.	.
2C#X/	-ſo a-	2e\	-ſo a-	.	.	.	.	2ee\	-ſo a-
0D	-dor-	4fny\	-dor-	.	.	2a\	-ſo a-	0dd	-dor-
.	.	4e\	.	.	.	.	.	.	.
!	!	!	!	!LO:SIC:v:t=custos A	!	!	!	!	!
.	.	4d\	.	2B-X/	-ſo a-	2.gny\	-dor-	.	.
.	.	4cny/	.	.	.	.	.	.	.
!	!	!	!	!LO:LB:g=original	!	!	!	!	!
=37-	=37-	=37-	=37-	=37-	=37-	=37-	=37-	=37-	=37-
*	*	*	*	*xywh-#63:4548,4014,3374,625	*	*	*	*	*
.	.	1d	.	1A	-dor-	.	.	.	.
!	!	!	!	!	!	!LO:SIC:s=8f\L:v	!	!	!
.	.	.	.	.	.	8f\	.	.	.
!	!	!	!	!	!	!LO:SIC:s=8e\J:v	!	!	!
.	.	.	.	.	.	8e\	.	.	.
.	.	.	.	.	.	2f#X\	.	.	.
1G	-no	1d	-no	1G	-no	0g	-no	1b	-no
=38-	=38-	=38-	=38-	=38-	=38-	=38-	=38-	=38-	=38-
0r	.	2e\	Co-	2c/	Co-	.	.	1r	.
.	.	4e\	-me	4c/	-me	.	.	.	.
.	.	4e\	pur-	4c/	pur-	.	.	.	.
.	.	2f\	-pu-	2d\	-pu-	1r	.	2r	.
.	.	2g\	-reo	2e\	-reo	.	.	2cc\	Co-
=39-	=39-	=39-	=39-	=39-	=39-	=39-	=39-	=39-	=39-
!	!	!	!	!	!LO:MO:mod=fior,	!	!	!	!
2F/	Co-	2c/	fior	1f	fior	2a\	Co-	4cc\	-me
.	.	.	.	.	.	.	.	4cc\	pur-
4F/	-me	2A/	ch`in-	.	.	4a\	-me	2dd\	-pu-
4F/	pur-	.	.	.	.	4a\	pur-	.	.
!	!	!	!	!	!	!	!	!LO:SIC:v:t=custos ff	!
2E/	-pu-	4B/	-ci-	1r	.	2g\	-pu-	2ee\	-reo
!	!	!LO:SIC:v:t=custos d	!	!	!	!	!	!	!
.	.	4c/	-ſo	.	.	.	.	.	.
*	*	*xywh-#367:4750,3957,3324,639	*	*	*	*	*	*xywh-#671:4703,3862,3419,675	*
!LO:SIC:v:t=custos A	!	!LO:LB:g=original	!	!	!	!	!	!LO:LB:g=original	!
!	!	!	!	!	!	!	!	!	!LO:MO:mod=fior,
2D/	-reo	1d\	lan-	.	.	2fny\	-reo	2ff\	fior
!LO:LB:g=original	!	!	!	!	!	!	!	!	!
=40-	=40-	=40-	=40-	=40-	=40-	=40-	=40-	=40-	=40-
*xywh-#215:4696,3472,3302,696	*	*	*	*	*	*	*	*	*
!	!	!	!	!	!LO:MO:mod=co-	!	!	!	!
1A	fior	.	.	2a\	Co-	2.e/	fior	2r	.
*	*	*	*	*	*	*	*	*	*ij
!	!	!	!LO:MO:mod=-gue,	!	!	!	!	!	!LO:MO:mod=co-
.	.	2c#X/	-gue	4a\	-me	.	.	2ee\	Co-
.	.	.	.	4a\	pur-	4e/	ch`in-	.	.
1r	.	1r	.	2g\	-pu-	4b\	-ci-	4ee\	-me
.	.	.	.	.	.	4b\	-ſo	4ee\	pur-
.	.	.	.	2f\	-reo	1a\	lan-	2dd\	-pu-
=41-	=41-	=41-	=41-	=41-	=41-	=41-	=41-	=41-	=41-
!	!	!	!	!	!LO:MO:mod=fior,	!	!	!	!
2r	.	2r	.	1e	fior	.	.	2cc\	-reo
!	!	!	!	!	!	!	!LO:MO:mod=-gue,	!	!
2E/	ch`in-	2e\	ch`in-	.	.	2g#X\	-gue	2b/	fior
*	*	*	*	*	*	*	*	*	*Xij
!	!	!	!	!	!	!LO:SIC:v:t=custos g	!	!	!
4F/	-ci-	4A/	-ci-	1r	.	1r	.	2r	.
4G\	-ſo	4B/	-ſo	.	.	.	.	.	.
1A\	lan-	1cny\	lan-	.	.	.	.	2a/	ch`in-
!	!	!	!	!	!	!LO:LB:g=original	!	!	!
=42-	=42-	=42-	=42-	=42-	=42-	=42-	=42-	=42-	=42-
*	*	*	*	*	*	*xywh-#519:4619,4475,3445,655	*	*	*
*	*	*	*	*	*ij	*	*	*	*
!	!	!	!	!	!LO:MO:mod=co-	!	!	!	!
.	.	.	.	2e\	Co-	2r	.	4cc\	-ci-
.	.	.	.	.	.	.	.	4dd\	-ſo
!	!LO:MO:mod=-gue,	!	!LO:MO:mod=-gue,	!	!	!	!LO:MO:mod=co-	!	!
2G#X\	-gue	2B/	-gue	4e\	-me	2b\	Co-	2ee\	lan-
.	.	.	.	4e\	pur-	.	.	.	.
!	!	!	!	!	!	!	!	!	!LO:MO:mod=-gue,
1r	.	1r	.	2f#X\	-pu-	4a\	-me	1dd	-gue
.	.	.	.	.	.	4a\	pur-	.	.
!	!	!	!	!LO:SIC:v:t=custos c	!	!	!	!	!
.	.	.	.	2g\	-reo	4b\	-pu-	.	.
.	.	.	.	.	.	4b\	-reo	.	.
!	!	!	!	!LO:LB:g=original	!	!	!	!	!
=43-	=43-	=43-	=43-	=43-	=43-	=43-	=43-	=43-	=43-
*	*	*	*	*xywh-#63:4555,4589,3367,603	*	*	*	*	*
!	!LO:MO:mod=co-	!	!LO:MO:mod=co-	!	!	!	!	!	!
2A\	Co-	2e\	Co-	1c	fior	2cc\	fior	2r	.
*	*	*	*	*	*	*	*	*	*ij
4A\	-me	4e\	-me	.	.	2a\	ch`in-	2cc\	ch`in-
4A\	pur-	4e\	pur-	.	.	.	.	.	.
2Gny\	-pu-	2g\	-pu-	1r	.	2b\	-ci-	4dd\	-ci-
.	.	.	.	.	.	.	.	4ee\	-ſo
2F/	-reo	2a\	-reo	.	.	2cc\	-ſo	2ff\	lan-
*	*	*	*	*	*Xij	*	*	*	*
=44-	=44-	=44-	=44-	=44-	=44-	=44-	=44-	=44-	=44-
!	!	!	!	!	!	!	!	!	!LO:MO:mod=-gue,
1c	fior	2g\	fior	2r	.	2cc\	lan-	4ee\	-gue
!	!	!	!	!	!	!	!	!LO:SIC:v:t=custos gg	!
*	*	*	*	*	*	*	*	*	*Xij
.	.	.	.	.	.	.	.	4gg\	co-
*	*	*	*	*	*	*	*	*xywh-#671:4717,4467,3412,682	*
!	!	!	!	!	!	!	!	!LO:LB:g=original	!
!	!	!	!	!	!	!	!LO:MO:mod=-gue,	!	!
.	.	2.e\	ch`in-	2g\	ch`in-	2c/	-gue	4gg\	me
.	.	.	.	.	.	.	.	4gg\	pur-
1A	ch`in-	.	.	1.a	-ci-	2r	.	2ff\	-pu-
.	.	2d\	-ci-	.	.	.	.	.	.
.	.	.	.	.	.	2e/	ch`in-	2ee\	-reo
.	.	4c#X/	-ſo	.	.	.	.	.	.
=45-	=45-	=45-	=45-	=45-	=45-	=45-	=45-	=45-	=45-
2D/	-ci-	1.d	lan-	.	.	2f\	-ci-	2dd\	fior
2E/	-ſo	.	.	2g\	-ſo	2gny\	-ſo	2b/	ch`in-
0F	lan-	.	.	2.fny\	lan-	0a	lan-	2a/	-ci-
.	.	4cny/	.	.	.	.	.	2cc\	-ſo
.	.	4B/	.	4e\	.	.	.	.	.
=46-	=46-	=46-	=46-	=46-	=46-	=46-	=46-	=46-	=46-
.	.	1A	.	1d	.	.	.	1dd	lan-
!LO:MO:mod=!null:null	!	!LO:MO:mod=!null:null	!	!LO:MO:mod=!null:null	!	!LO:MO:mod=!null:null	!	!LO:MO:mod=!null:null	!
!LO:N:vis=00	!	!LO:N:vis=00	!	!LO:N:vis=00	!	!LO:N:vis=00	!	!LO:N:vis=00	!
!	!	!	!	!	!LO:MO:mod=-gue.	!	!LO:MO:mod=-gue.	!	!
0.E	-gue.	0.B	-gue.	0.e	-gue	0.g#X	-gue	0.b	-gue.
=47-	=47-	=47-	=47-	=47-	=47-	=47-	=47-	=47-	=47-
.	.	.	.	.	.	.	.	.	.
==	==	==	==	==	==	==	==	==	==
*-	*-	*-	*-	*-	*-	*-	*-	*-	*-
!!!system-decoration: [(s1,s2,s3,s4,s5)]
!!!filter-modern: tie -s | humtr -p | sic -sq | shed -e "s/LO:DY:(a|b|rj)/LO:dy:$1/L" | shed -e "s/TX(.*):t=P:/tx$1:t=P:/LG" | modori -m | autostem -r | shed -e "s/yy//" | shed -k -e "s/\(y([^y])/($1/" | shed -e "s/-//B" | shed -e "s/^(\d+[\/\\]right)/$1yy/I; s/^(\d+[\/\\]left)/$1yy/I" | shed -e "s/^(X?)rep$/$1REP/I" | shed -k -e "s/[<>]//g" | shed -e "s/^custos:/Xcustos:/I" | shed -k -e "s/:TUP:/:tup:/L" | shed -k -e "s/r[a-gA-G]+/r/D" | rid -li
!!!ENC: Filip Voros
!!!END: 2022-06-28
!!!ENC: Jan Barakat
!!!END: 2022-07-15
!!!EED-modern: Antoni Szymański
!!!END-modern: 2022-08-09
!!!ENC-iiif: Jacek Iwaszko
!!!END-iiif: 2023-09-01
!!!YEC: Copyright 2022 Narodowy Instytut Fryderyka Chopina (https://polishscores.org)
!!!YEM: License CC-BY-4.0 (https://creativecommons.org/licenses/by/4.0)
